godot/assets/ui/place_categories/live-pin.svg

<svg width="34" height="38" viewBox="0 0 34 38" fill="none" xmlns="http://www.w3.org/2000/svg">
<g clip-path="url(#clip0_5016_22233)">
<g filter="url(#filter0_d_5016_22233)">
<path d="M15.6302 33.7315C16.391 34.488 17.609 34.488 18.3698 33.7315C19.5065 32.6013 21.8862 30.1139 23.9887 27.1201C26.0613 24.1687 28 20.5389 28 17.1587C28 11.0108 23.0899 6 17 6C10.9101 6 6 11.0108 6 17.1587C6 20.5389 7.93866 24.1687 10.0113 27.1201C12.1138 30.1139 14.4935 32.6013 15.6302 33.7315Z" fill="#FCFCFC" stroke="#FCFCFC" stroke-width="2"/>
<rect x="3" y="3" width="28" height="28" rx="8" fill="#219245"/>
<rect x="3" y="3" width="28" height="28" rx="8" stroke="#FCFCFC" stroke-width="2"/>
<g clip-path="url(#clip1_5016_22233)">
<circle cx="16.7641" cy="16.9027" r="2.16251" fill="#FCFCFC"/>
<path d="M19.7759 13.7207C20.6193 14.5193 21.1454 15.6495 21.1454 16.9027C21.1454 18.1559 20.6193 19.2862 19.7759 20.0847M13.7524 13.7207C12.9089 14.5193 12.3828 15.6495 12.3828 16.9027C12.3828 18.1559 12.9089 19.2862 13.7524 20.0847" stroke="#FCFCFC" stroke-linecap="round" stroke-linejoin="round"/>
<path d="M21.9945 11.2227C23.5267 12.6338 24.4867 14.6568 24.4867 16.904C24.4867 19.1512 23.5267 21.1742 21.9945 22.5853M11.5351 11.2227C10.0029 12.6338 9.04297 14.6568 9.04297 16.904C9.04297 19.1512 10.0029 21.1742 11.5351 22.5853" stroke="#FCFCFC" stroke-width="1.5" stroke-linecap="round" stroke-linejoin="round"/>
</g>
</g>
</g>
<defs>
<filter id="filter0_d_5016_22233" x="0" y="2" width="34" height="37.2988" filterUnits="userSpaceOnUse" color-interpolation-filters="sRGB">
<feFlood flood-opacity="0" result="BackgroundImageFix"/>
<feColorMatrix in="SourceAlpha" type="matrix" values="0 0 0 0 0 0 0 0 0 0 0 0 0 0 0 0 0 0 127 0" result="hardAlpha"/>
<feOffset dy="2"/>
<feGaussianBlur stdDeviation="1"/>
<feComposite in2="hardAlpha" operator="out"/>
<feColorMatrix type="matrix" values="0 0 0 0 0 0 0 0 0 0 0 0 0 0 0 0 0 0 0.8 0"/>
<feBlend mode="normal" in2="BackgroundImageFix" result="effect1_dropShadow_5016_22233"/>
<feBlend mode="normal" in="SourceGraphic" in2="effect1_dropShadow_5016_22233" result="shape"/>
</filter>
<clipPath id="clip0_5016_22233">
<rect width="34" height="38" fill="white"/>
</clipPath>
<clipPath id="clip1_5016_22233">
<rect width="18" height="14" fill="white" transform="translate(8 10)"/>
</clipPath>
</defs>
</svg>

<svg width="34" height="38" fill="none" xmlns="http://www.w3.org/2000/svg"><g filter="url(#prefix__filter0_d_5016_22233)" clip-path="url(#prefix__clip0_5016_22233)"><path d="M15.63 33.731c.761.757 1.979.757 2.74 0 1.136-1.13 3.516-3.617 5.619-6.61C26.06 24.168 28 20.538 28 17.158 28 11.01 23.09 6 17 6S6 11.01 6 17.159c0 3.38 1.939 7.01 4.011 9.961 2.103 2.994 4.482 5.481 5.62 6.611z" fill="#FCFCFC" stroke="#FCFCFC" stroke-width="2"/><rect x="3" y="3" width="28" height="28" rx="8" fill="#ff0000"/><rect x="3" y="3" width="28" height="28" rx="8" stroke="#FCFCFC" stroke-width="2"/><g clip-path="url(#prefix__clip1_5016_22233)"><circle cx="16.764" cy="16.903" r="2.163" fill="#FCFCFC"/><path d="M19.776 13.72a4.369 4.369 0 011.37 3.183 4.369 4.369 0 01-1.37 3.182m-6.024-6.364a4.369 4.369 0 00-1.37 3.182c0 1.253.527 2.383 1.37 3.182" stroke="#FCFCFC" stroke-linecap="round" stroke-linejoin="round"/><path d="M21.994 11.223a7.701 7.701 0 012.493 5.681c0 2.247-.96 4.27-2.492 5.681m-10.46-11.362a7.701 7.701 0 00-2.492 5.681c0 2.247.96 4.27 2.492 5.681" stroke="#FCFCFC" stroke-width="1.5" stroke-linecap="round" stroke-linejoin="round"/></g></g><defs><clipPath id="prefix__clip0_5016_22233"><path fill="#fff" d="M0 0h34v38H0z"/></clipPath><clipPath id="prefix__clip1_5016_22233"><path fill="#fff" transform="translate(8 10)" d="M0 0h18v14H0z"/></clipPath><filter id="prefix__filter0_d_5016_22233" x="0" y="2" width="34" height="37.299" filterUnits="userSpaceOnUse" color-interpolation-filters="sRGB"><feFlood flood-opacity="0" result="BackgroundImageFix"/><feColorMatrix in="SourceAlpha" values="0 0 0 0 0 0 0 0 0 0 0 0 0 0 0 0 0 0 127 0" result="hardAlpha"/><feOffset dy="2"/><feGaussianBlur stdDeviation="1"/><feComposite in2="hardAlpha" operator="out"/><feColorMatrix values="0 0 0 0 0 0 0 0 0 0 0 0 0 0 0 0 0 0 0.8 0"/><feBlend in2="BackgroundImageFix" result="effect1_dropShadow_5016_22233"/><feBlend in="SourceGraphic" in2="effect1_dropShadow_5016_22233" result="shape"/></filter></defs></svg>
